apps/24/genymotion.svg

<?xml version="1.0" encoding="UTF-8" standalone="no"?>
<!-- Created with Inkscape (http://www.inkscape.org/) -->

<svg
   xmlns:dc="http://purl.org/dc/elements/1.1/"
   xmlns:cc="http://creativecommons.org/ns#"
   xmlns:rdf="http://www.w3.org/1999/02/22-rdf-syntax-ns#"
   xmlns:svg="http://www.w3.org/2000/svg"
   xmlns="http://www.w3.org/2000/svg"
   xmlns:sodipodi="http://sodipodi.sourceforge.net/DTD/sodipodi-0.dtd"
   xmlns:inkscape="http://www.inkscape.org/namespaces/inkscape"
   version="1.1"
   width="24"
   height="24"
   id="svg2"
   inkscape:version="0.92.2 5c3e80d, 2017-08-06"
   sodipodi:docname="genymotion.svg">
  <sodipodi:namedview
     pagecolor="#ffffff"
     bordercolor="#666666"
     borderopacity="1"
     objecttolerance="10"
     gridtolerance="10"
     guidetolerance="10"
     inkscape:pageopacity="0"
     inkscape:pageshadow="2"
     inkscape:window-width="1920"
     inkscape:window-height="1033"
     id="namedview6"
     showgrid="true"
     inkscape:zoom="29.5"
     inkscape:cx="15.580869"
     inkscape:cy="11.373768"
     inkscape:window-x="-10"
     inkscape:window-y="25"
     inkscape:window-maximized="1"
     inkscape:current-layer="svg2"
     inkscape:snap-global="true">
    <inkscape:grid
       type="xygrid"
       id="grid2982"
       empspacing="5"
       visible="true"
       enabled="true"
       snapvisiblegridlinesonly="true" />
  </sodipodi:namedview>
  <defs
     id="defs4" />
  <metadata
     id="metadata7">
    <rdf:RDF>
      <cc:Work
         rdf:about="">
        <dc:format>image/svg+xml</dc:format>
        <dc:type
           rdf:resource="http://purl.org/dc/dcmitype/StillImage" />
        <dc:title />
      </cc:Work>
    </rdf:RDF>
  </metadata>
  <path
     style="color:#000000;font-style:normal;font-variant:normal;font-weight:normal;font-stretch:normal;font-size:medium;line-height:normal;font-family:sans-serif;font-variant-ligatures:normal;font-variant-position:normal;font-variant-caps:normal;font-variant-numeric:normal;font-variant-alternates:normal;font-feature-settings:normal;text-indent:0;text-align:start;text-decoration:none;text-decoration-line:none;text-decoration-style:solid;text-decoration-color:#000000;letter-spacing:normal;word-spacing:normal;text-transform:none;writing-mode:lr-tb;direction:ltr;text-orientation:mixed;dominant-baseline:auto;baseline-shift:baseline;text-anchor:start;white-space:normal;shape-padding:0;clip-rule:nonzero;display:inline;overflow:visible;visibility:visible;opacity:1;isolation:auto;mix-blend-mode:normal;color-interpolation:sRGB;color-interpolation-filters:linearRGB;solid-color:#000000;solid-opacity:1;vector-effect:none;fill:#f1f3f5;fill-opacity:0.90288714;fill-rule:nonzero;stroke:none;stroke-width:2;stroke-linecap:butt;stroke-linejoin:miter;stroke-miterlimit:4;stroke-dasharray:none;stroke-dashoffset:0;stroke-opacity:1;color-rendering:auto;image-rendering:auto;shape-rendering:auto;text-rendering:auto;enable-background:accumulate;font-variant-east_asian:normal;marker:none"
     d="M 12.267578 1.9863281 C 12.023744 1.9798023 11.780095 1.9811974 11.537109 1.9921875 C 9.9170728 2.0654615 8.327688 2.5285775 6.9101562 3.3671875 C 3.4680182 5.4035498 1.5662717 9.2762364 2.0585938 13.244141 C 2.3944965 15.951389 3.8269799 18.4028 6.0234375 20.041016 C 7.5582475 21.185746 9.4165364 21.872889 11.324219 21.998047 C 13.825824 22.162166 16.299492 21.391424 18.244141 19.835938 C 21.323307 17.372972 22.672722 13.370052 21.714844 9.5410156 C 20.825686 5.9866689 18.010912 3.1741992 14.457031 2.2851562 C 13.732533 2.1039149 12.99908 2.0059057 12.267578 1.9863281 z M 11.582031 2.9902344 C 12.457512 2.9506366 13.342628 3.0376648 14.214844 3.2558594 C 17.405801 4.0541128 19.945889 6.5922469 20.744141 9.7832031 C 21.609179 13.241117 20.398834 16.831266 17.619141 19.054688 C 15.871747 20.452395 13.644946 21.147896 11.390625 21 C 9.6806815 20.887815 7.997655 20.266935 6.6210938 19.240234 C 4.6406002 17.763094 3.3530383 15.557171 3.0507812 13.121094 C 2.6068147 9.5429141 4.3155398 6.0650621 7.4199219 4.2285156 C 8.6952144 3.4740542 10.122897 3.0562307 11.582031 2.9902344 z M 15.40625 7.7539062 C 13.2826 7.7539063 11.550781 9.4857248 11.550781 11.609375 C 11.550781 13.733025 13.2826 15.466797 15.40625 15.466797 C 17.5299 15.466797 19.263672 13.733025 19.263672 11.609375 C 19.263672 9.4857248 17.5299 7.7539064 15.40625 7.7539062 z M 15.40625 8.7539062 C 16.98946 8.7539062 18.263672 10.026165 18.263672 11.609375 C 18.263672 13.192585 16.98946 14.466797 15.40625 14.466797 C 13.82304 14.466797 12.550781 13.192585 12.550781 11.609375 C 12.550781 10.026165 13.82304 8.7539062 15.40625 8.7539062 z M 7.6445312 9.3144531 C 5.9046721 9.3144531 4.4824219 10.73475 4.4824219 12.474609 C 4.4824219 14.214468 5.9046721 15.634766 7.6445312 15.634766 C 9.3843905 15.634766 10.804685 14.214468 10.804688 12.474609 C 10.804688 10.73475 9.3843905 9.3144531 7.6445312 9.3144531 z M 7.6445312 10.314453 C 8.8439505 10.314453 9.8046875 11.27519 9.8046875 12.474609 C 9.8046875 13.674028 8.8439505 14.634766 7.6445312 14.634766 C 6.4451123 14.634766 5.4824219 13.674028 5.4824219 12.474609 C 5.4824219 11.27519 6.4451123 10.314453 7.6445312 10.314453 z "
     id="path831" />
  <path
     inkscape:connector-curvature="0"
     style="fill:#27303a;fill-opacity:0.75328082;stroke:none;stroke-width:1;stroke-miterlimit:4;stroke-dasharray:none;stroke-opacity:1;font-variant-east_asian:normal;opacity:1;vector-effect:none;stroke-linecap:butt;stroke-linejoin:miter;stroke-dashoffset:0;marker:none"
     d="M 11.582031,2.9902344 C 10.122897,3.0562307 8.6952144,3.4740542 7.4199219,4.2285156 4.3155398,6.0650621 2.6068146,9.5429144 3.0507812,13.121094 c 0.3022571,2.436077 1.589819,4.642 3.5703126,6.11914 C 7.997655,20.266935 9.6806815,20.887815 11.390625,21 c 2.254321,0.147896 4.481122,-0.547605 6.228516,-1.945312 2.779693,-2.223422 3.990038,-5.813571 3.125,-9.2714849 C 19.945889,6.5922469 17.405801,4.0541128 14.214844,3.2558594 13.342628,3.0376648 12.457512,2.9506366 11.582031,2.9902344 Z m 3.824219,4.7636718 c 2.12365,2e-7 3.857422,1.7318186 3.857422,3.8554688 0,2.12365 -1.733772,3.857422 -3.857422,3.857422 -2.12365,0 -3.855469,-1.733772 -3.855469,-3.857422 0,-2.1236502 1.731819,-3.8554688 3.855469,-3.8554688 z m 0,1 c -1.58321,0 -2.855469,1.2722588 -2.855469,2.8554688 0,1.58321 1.272259,2.857422 2.855469,2.857422 1.58321,0 2.857422,-1.274212 2.857422,-2.857422 0,-1.58321 -1.274212,-2.8554688 -2.857422,-2.8554688 z M 7.6445312,9.3144531 c 1.7398593,0 3.1601568,1.4202969 3.1601568,3.1601559 -2e-6,1.739859 -1.4202975,3.160157 -3.1601568,3.160157 -1.7398591,0 -3.1621093,-1.420298 -3.1621093,-3.160157 0,-1.739859 1.4222502,-3.1601559 3.1621093,-3.1601559 z m 0,0.9999999 c -1.1994189,0 -2.1621093,0.960737 -2.1621093,2.160156 0,1.199419 0.9626904,2.160157 2.1621093,2.160157 1.1994193,0 2.1601563,-0.960738 2.1601563,-2.160157 0,-1.199419 -0.960737,-2.160156 -2.1601563,-2.160156 z"
     id="path855" />
</svg>

<?xml version="1.0" encoding="UTF-8"?>
<svg id="a" width="24" height="24" version="1.1" xmlns="http://www.w3.org/2000/svg" xmlns:cc="http://creativecommons.org/ns#" xmlns:dc="http://purl.org/dc/elements/1.1/" xmlns:rdf="http://www.w3.org/1999/02/22-rdf-syntax-ns#">
	<metadata id="c">
		<rdf:RDF>
			<cc:Work rdf:about="">
				<dc:format>image/svg+xml</dc:format>
				<dc:type rdf:resource="http://purl.org/dc/dcmitype/StillImage"/>
				<dc:title/>
			</cc:Work>
		</rdf:RDF>
	</metadata>
	<defs id="k">
		<style id="current-color-scheme" type="text/css">.ColorScheme-Text {color:#090d11;}.ColorScheme-Background{color:#ffffff;}</style>
	</defs>
	<path id="d" d="m12.268 1.9863c-0.24383-0.0065258-0.48748-0.0051307-0.73047 0.0058594-1.62 0.073274-3.2094 0.53639-4.627 1.375-3.4421 2.0364-5.3439 5.909-4.8516 9.877 0.3359 2.7072 1.7684 5.1587 3.9648 6.7969 1.5348 1.1447 3.3931 1.8319 5.3008 1.957 2.5016 0.16412 4.9753-0.60662 6.9199-2.1621 3.0792-2.463 4.4286-6.4659 3.4707-10.295-0.88916-3.5543-3.7039-6.3668-7.2578-7.2559-0.7245-0.18124-1.458-0.27925-2.1895-0.29883zm-0.68555 1.0039c0.87548-0.039598 1.7606 0.04743 2.6328 0.26562 3.191 0.79825 5.731 3.3364 6.5293 6.5273 0.86504 3.4579-0.34531 7.0481-3.125 9.2715-1.7474 1.3977-3.9742 2.0932-6.2285 1.9453-1.7099-0.11218-3.393-0.73306-4.7695-1.7598-1.9805-1.4771-3.2681-3.6831-3.5703-6.1191-0.44397-3.5782 1.2648-7.056 4.3691-8.8926 1.2753-0.75446 2.703-1.1723 4.1621-1.2383zm3.8242 4.7637c-2.1236 1e-7 -3.8555 1.7318-3.8555 3.8555 0 2.1236 1.7318 3.8574 3.8555 3.8574s3.8574-1.7338 3.8574-3.8574c0-2.1237-1.7338-3.8555-3.8574-3.8555zm0 1c1.5832 0 2.8574 1.2723 2.8574 2.8555s-1.2742 2.8574-2.8574 2.8574-2.8555-1.2742-2.8555-2.8574 1.2723-2.8555 2.8555-2.8555zm-7.7617 0.56055c-1.7399 0-3.1621 1.4203-3.1621 3.1602s1.4223 3.1602 3.1621 3.1602c1.7399 0 3.1602-1.4203 3.1602-3.1602 0-1.7399-1.4203-3.1602-3.1602-3.1602zm0 1c1.1994 0 2.1602 0.96074 2.1602 2.1602s-0.96074 2.1602-2.1602 2.1602c-1.1994 0-2.1621-0.96074-2.1621-2.1602s0.96269-2.1602 2.1621-2.1602z" style="fill-opacity:.5;fill:currentColor" class="ColorScheme-Background"/>
	<path id="b" d="m11.582 2.9902c-1.4591 0.065996-2.8868 0.48382-4.1621 1.2383-3.1044 1.8365-4.8131 5.3144-4.3691 8.8926 0.30226 2.4361 1.5898 4.642 3.5703 6.1191 1.3766 1.0267 3.0596 1.6476 4.7695 1.7598 2.2543 0.1479 4.4811-0.5476 6.2285-1.9453 2.7797-2.2234 3.99-5.8136 3.125-9.2715-0.79825-3.191-3.3383-5.7291-6.5293-6.5273-0.87222-0.21819-1.7573-0.30522-2.6328-0.26562zm3.8242 4.7637c2.1236 2e-7 3.8574 1.7318 3.8574 3.8555 0 2.1236-1.7338 3.8574-3.8574 3.8574s-3.8555-1.7338-3.8555-3.8574c0-2.1237 1.7318-3.8555 3.8555-3.8555zm0 1c-1.5832 0-2.8555 1.2723-2.8555 2.8555s1.2723 2.8574 2.8555 2.8574 2.8574-1.2742 2.8574-2.8574-1.2742-2.8555-2.8574-2.8555zm-7.7617 0.56055c1.7399 0 3.1602 1.4203 3.1602 3.1602-2e-6 1.7399-1.4203 3.1602-3.1602 3.1602-1.7399 0-3.1621-1.4203-3.1621-3.1602s1.4223-3.1602 3.1621-3.1602zm0 1c-1.1994 0-2.1621 0.96074-2.1621 2.1602s0.96269 2.1602 2.1621 2.1602c1.1994 0 2.1602-0.96074 2.1602-2.1602s-0.96074-2.1602-2.1602-2.1602z" style="fill-opacity:.75;fill:currentColor" class="ColorScheme-Text"/>
</svg>
